X:1
T:Title
%%score { ( 1 3 ) | ( 2 4 ) }
L:1/8
M:4/4
K:G
V:1 treble nm="Grand Piano"
V:3 treble 
V:2 bass 
V:4 bass 
V:1
 z4 z2[Q:1/4=100] D>D | [B,DG]>[B,DG] [B,DG]>[B,DG] [B,DG]2 F>G | A2 D>D D2 D>D | %3
 [CFA]>[CFA] [CFA]>[CFA] [CFA]2 [G,DG]>[DA] | [DB]2 G>G G2 D>D | B>B B>B [Bd]2 [Ac]>[GB] | %6
 [FA]>[FA] [FA]>[GB] [Ac]2 [GB]>A | G>A B>c d2 [Ec]>[CEA] | %8
[M:7/8] [B,DG]2 [A,DF]>[A,DF] [G,B,DG]3 |[M:1/4] B>c |[M:4/4] d6 z2 | c6 z2 | B>B B>B d2 c>B | %13
 [DFA]6 D>[CD] | [B,DG]>[B,DG] [B,DG]>[B,DG] [DGB]2 [CDA]>[B,DG] | %15
 [FA]>[FA] [FA]>[GB] [Ac]2 [GB]>A | G>A B>c d2 [Ec]>[EA] | %17
[M:15/8] G2 F-F/F/ [B,DG]2- [B,DG] z2 z6 |] %18
V:2
 z4 z2 D,>D, | G,,>G,, G,,>G,, G,,2 [D,A,D]>[D,B,D] | [D,CD]2 [D,F,]>[D,F,] [D,F,]2 [D,F,]>[D,F,] | %3
 D,>D, D,>D, D,>C, B,,>[A,,F,] | [G,,G,]2 [G,B,D]>[G,B,D] [G,B,D]2 [G,B,]>[G,B,] | %5
 [G,DG]>[G,DG] [G,DG]>[G,DG] [G,D]2[K:bass] [G,D]>[G,D] | %6
 [D,D]>[D,D] [D,D]>[D,D] [D,D]2 [D,D]>[D,CD] | %7
 [G,B,D]>[G,CD] [G,DG]>[G,DG] [G,B,G]2[K:bass] [C,G,]>C, |[M:7/8] D,2 D,>D, G,,3 | %9
[M:1/4][K:treble] G>A |[M:4/4] B6 z2 | A6[K:bass] z2 | %12
 [G,DG]>[G,DG] [G,DG]>[G,DG] [B,DG]2 [A,DF]>[A,DG] | D,2 D,>D, D,>C, B,,>A,, | %14
 G,,>G,, G,,>G,, G,2 G,>G, | [D,D]>[D,D] [D,D]>[D,D] [D,D]2 [D,D]>[D,CD] | %16
 [G,B,D]>[G,CD] [G,DG]>[G,DG] [G,B,G]2[K:bass] [C,G,]>[C,C] | %17
[M:15/8] [D,B,D]2 [D,A,D]-[D,A,D]/[D,A,D]/ [G,,G,]2- [G,,G,] z2 z6 |] %18
V:3
 x8 | x8 | x8 | x8 | x8 | x8 | x8 | x8 |[M:7/8] x7 |[M:1/4] x2 |[M:4/4] z2 D>D D2 e>d | %11
 z2 D>D D2 [Fd]>[Fc] | x8 | x8 | x8 | x8 | x8 |[M:15/8] x15 |] %18
V:4
 x8 | x8 | x8 | x8 | x8 | x6[K:bass] x2 | x8 | x6[K:bass] x2 |[M:7/8] x7 |[M:1/4][K:treble] x2 | %10
[M:4/4] z2 G,>G, G,2 c>B | z2[K:bass] D,>D, D,2 [D,D]>[D,D] | x8 | x8 | x8 | x8 | x6[K:bass] x2 | %17
[M:15/8] x15 |] %18

